X:1
T:Siciliana
T:Siciliano, Sicilienne 
T:Matteo Carcassi (1792 - 1853)
T:op.59 No. 22
C:Matteo Carcassi (1792 - 1853)
%%score ( 1 2 ) ( 3 4 )
L:1/8
Q:1/4=80
M:6/8
K:C
V:1 treble-8 nm="Klassische Gitarre" snm="Git."
V:2 treble-8 
V:3 tab stafflines=6 strings=E2,A2,D3,G3,B3,E4 nostems nm="Klassische Gitarre" snm="Git."
V:4 tab stafflines=6 strings=E2,A2,D3,G3,B3,E4 nostems 
V:1
!mf! e |{/f} e>dc c>BA | f>ed d>cB | d>cB B>A^G | A>Bc c2!p! e |{/f} e>dc c>BA | f>ed d>cB | %7
 d>cB B>A^G | A>ec A2!mf! G | c>dc B2!p! G | c>dc B2!mf! !4!g | c>de f2 e | %12
 d3 !arpeggio![^GBe]2 e |{/f} e>dc c>BA | f>ed d>cB | d>cB B>A^G | A>Bc c2!p! e |{/f} e>dc c>BA | %18
 f>ed d>cB | d>cB B>A^G | A>ec A3!fine! |:[K:A]!mp! E!fine! |!<(! [Ac]2 e [Bd]2 f!<)! | %23
"^V" [ce]2 a"^IV" [eg]2"^II" [df] | [ce]2 [df] [Bd]2!>(! [ce] | [Ac]2 [Bd] [GB]2!>)!"^II" E | %26
!<(! [Ac]2 e [Bd]2 f!<)! |"^V" [ce]2 a"^IV" [eg]2"^II" [df] |"^V" [ce]2 [Ac] [Bd]2!>(! [GB] | %29
 A>ec A!>)! z2!D.C.! :| %30
V:2
 x | A,3 A,3 | D6 | E,3 E,3 | A,3 x3 | A,3 A,3 | D6 | E,3 E,3 | (A,3 A,2) x | E3 F2 x | E3 D2 x | %11
 E3 D2 C | B,3 E,2 z | A,3 A,3 | D6 | E,3 E,3 | A,3 x3 | A,3 A,3 | D6 | E,3 E,3 | (A,3 A,3) |: %21
[K:A] x | A,3 A,3 | A,3 A,3 | A,3 E,3 | A,3 E,3 | A,3 A,3 | A,3 A,3 | A,3 E,3 | A,3 A, x2 :| %30
V:3
 !1!E |{/!1!F} !1!E3/2 !2!D/ !2!C !2!C3/2 !2!B,/ !3!A, | !1!F3/2 !1!E/ !2!D !2!D3/2 !2!C/ !2!B, | %3
 !2!D3/2 !2!C/ !2!B, !2!B,3/2 !3!A,/ !3!^G, | !3!A,3/2 !2!B,/ !2!C !2!C2 !1!E | %5
{/!1!F} !1!E3/2 !2!D/ !2!C !2!C3/2 !2!B,/ !3!A, | !1!F3/2 !1!E/ !2!D !2!D3/2 !2!C/ !2!B, | %7
 !2!D3/2 !2!C/ !2!B, !2!B,3/2 !3!A,/ !3!^G, | !3!A,3/2 !1!E/ !2!C !2!C2 !3!G, | %9
 !2!C3/2 !2!D/ !2!C !2!B,2 !3!G, | !2!C3/2 !2!D/ !2!C !2!B,2 !1!G | !2!C3/2 !2!D/ !1!E !1!F2 !1!E | %12
 !2!D3 !arpeggio![!3!^G,!2!B,!1!E]2 !1!E |{/!1!F} !1!E3/2 !2!D/ !2!C !2!C3/2 !2!B,/ !3!A, | %14
 !1!F3/2 !1!E/ !2!D !2!D3/2 !2!C/ !2!B, | !2!D3/2 !2!C/ !2!B, !2!B,3/2 !3!A,/ !3!^G, | %16
 !3!A,3/2 !2!B,/ !2!C !2!C2 !1!E |{/!1!F} !1!E3/2 !2!D/ !2!C !2!C3/2 !2!B,/ !3!A, | %18
 !1!F3/2 !1!E/ !2!D !2!D3/2 !2!C/ !2!B, | !2!D3/2 !2!C/ !2!B, !2!B,3/2 !3!A,/ !3!^G, | %20
 !3!A,3/2 !1!E/ !2!C !2!C3 |:[K:A] !4!E, |!<(! [!3!A,!2!C]2 !1!E [!3!B,!2!D]2 !1!F!<)! | %23
 [!3!C!2!E]2 !1!A [!2!E!1!G]2 [!2!D!1!F] | [!2!C!1!E]2 [!2!D!1!F] [!3!B,!2!D]2!>(! [!2!C!1!E] | %25
 [!3!A,!2!C]2 [!3!B,!2!D] [!3!G,!2!B,]2!>)! !4!E, |!<(! [!3!A,!2!C]2 !1!E [!3!B,!2!D]2 !1!F!<)! | %27
 [!3!C!2!E]2 !1!A [!2!E!1!G]2 [!2!D!1!F] | [!3!C!2!E]2 [!4!A,!3!C] [!4!B,!3!D]2!>(! [!3!G,!2!B,] | %29
 !3!A,3/2 !1!E/ !2!C !3!A,!>)! x2 :| %30
V:4
 x | !5!A,,3 !5!A,,3 | !4!D,6 | !6!E,,3 !6!E,,3 | !5!A,,3 x3 | !5!A,,3 !5!A,,3 | !4!D,6 | %7
 !6!E,,3 !6!E,,3 | (!5!A,,3 !5!A,,2) x | !4!E,3 !4!F,2 x | !4!E,3 !4!D,2 x | !4!E,3 !4!D,2 !5!C, | %12
 !5!B,,3 !6!E,,2 x | !5!A,,3 !5!A,,3 | !4!D,6 | !6!E,,3 !6!E,,3 | !5!A,,3 x3 | !5!A,,3 !5!A,,3 | %18
 !4!D,6 | !6!E,,3 !6!E,,3 | (!5!A,,3 !5!A,,3) |:[K:A] x | !5!A,,3 !5!A,,3 | !5!A,,3 !5!A,,3 | %24
 !5!A,,3 !6!E,,3 | !5!A,,3 !6!E,,3 | !5!A,,3 !5!A,,3 | !5!A,,3 !5!A,,3 | !5!A,,3 !6!E,,3 | %29
 !5!A,,3 !5!A,, x2 :| %30

